RestoDelMundo/Varios/Federaciones/Legacalciob.svg

<svg xmlns="http://www.w3.org/2000/svg" width="1000" height="1000" viewBox="0 0 1000 1000"><g transform="translate(-1245.305 -900.903)scale(4.50452)"><path fill="#343536" fill-rule="evenodd" d="m337.129 240.591-6.439 5.237 2.129 4.413-4.513 3.672-10.978-25.402 5.68-4.619 22.464 16.059-4.509 3.668ZM390.337 221.812l-8.267.582-.778 4.841-5.793.407 5.515-27.13 7.291-.512 9.231 26.094-5.789.407ZM305.161 295.439l-2.72 12.85-25.984-5.546 1.213-5.735 19.916 4.251 1.505-7.116ZM293.344 280.451l2.508-6.561 5.307 2.046-2.509 6.561 4.197 1.619 2.66-6.959 5.551 2.139-4.699 12.291-24.799-9.561 4.697-12.292 5.446 2.1-2.661 6.96ZM311.488 260.148l-4.565-3.211 6.576-9.432q.232.145.502.327.273.181.792.548 5.614 3.948 7.04 8.525 1.425 4.577-1.611 8.93-1.492 2.14-3.448 3.247-1.957 1.107-4.504 1.268-2.434.153-5.048-.655a17.6 17.6 0 0 1-4.946-2.449q-2.439-1.714-4.011-3.824a14 14 0 0 1-2.278-4.594q-.668-2.441-.289-4.729.376-2.289 1.759-4.272 1.803-2.586 4.453-3.688t6.093-.706l-.436 5.896q-1.781-.143-3.049.358a4.5 4.5 0 0 0-2.073 1.654q-1.501 2.156-.589 4.643.91 2.489 3.986 4.651 3.106 2.185 5.753 2.199t4.15-2.141q1.276-1.829 1.023-3.827t-1.95-3.496z" clip-rule="evenodd"/><path fill="#fff" d="m328.417 241.004 4.508-3.668-7.209-5.465a27 27 0 0 1-1.027-.831q-.695-.584-1.79-1.499.469.885.886 1.694.418.811.784 1.568z"/><path fill="#343536" fill-rule="evenodd" d="m364.493 204.346 2.576 7.518q-1.672-1.177-3.048-1.521t-2.662.102q-2.379.821-3.155 3.354-.778 2.53.337 5.784 1.04 3.03 3.223 4.509 2.184 1.48 4.505.677a4.64 4.64 0 0 0 2.162-1.563q.876-1.117 1.468-3.087l2.577 7.517a12.5 12.5 0 0 1-2.201 2.092 9.5 9.5 0 0 1-2.489 1.303q-1.658.574-3.227.567a8.5 8.5 0 0 1-3.088-.6q-2.913-1.112-5.087-3.578t-3.408-6.065q-.993-2.895-1.053-5.524a14.3 14.3 0 0 1 .799-5.084q.804-2.34 2.294-3.875 1.489-1.537 3.699-2.3a9.4 9.4 0 0 1 2.759-.511q1.434-.053 3.019.285" clip-rule="evenodd"/><path fill="#fff" d="m382.963 217.132 5.787-.407-2.783-8.63a27 27 0 0 1-.366-1.27l-.612-2.261q-.122.996-.242 1.899-.12.905-.252 1.736z"/><path fill="#343536" fill-rule="evenodd" d="m414.093 228.661-12.954-1.828 3.698-26.419 5.781.815-2.835 20.249 7.172 1.013ZM442.56 212.057l-2.967 7.37q-.49-1.988-1.307-3.156-.815-1.167-2.075-1.678-2.331-.944-4.571.453-2.243 1.397-3.525 4.589-1.197 2.97-.512 5.527.68 2.553 2.959 3.477a4.6 4.6 0 0 0 2.65.246q1.393-.268 3.124-1.362l-2.964 7.37q-1.6.255-3.03.127a9.5 9.5 0 0 1-2.729-.654q-1.625-.659-2.806-1.7a8.5 8.5 0 0 1-1.938-2.486q-1.474-2.759-1.503-6.052-.03-3.293 1.389-6.825c.763-1.891 1.699-3.511 2.816-4.86a14.2 14.2 0 0 1 3.924-3.311q2.135-1.237 4.262-1.415t4.295.702a9.5 9.5 0 0 1 2.416 1.432 12.3 12.3 0 0 1 2.092 2.206M451.182 215.597l5.002 3.139-14.079 22.624-5.002-3.138ZM472.673 250.201q-1.988 2.07-4.339 3.288a14.1 14.1 0 0 1-4.889 1.514q-2.538.273-4.791-.429-2.25-.7-3.879-2.28a9.7 9.7 0 0 1-2.42-3.83c-.515-1.486-.698-3.072-.557-4.756a14 14 0 0 1 1.324-4.999q1.136-2.417 3.104-4.463 1.975-2.058 4.336-3.275a13.8 13.8 0 0 1 4.922-1.496q2.51-.305 4.752.392a9.6 9.6 0 0 1 3.896 2.297q1.64 1.591 2.42 3.83.784 2.24.577 4.776a14.2 14.2 0 0 1-1.341 4.955q-1.135 2.417-3.115 4.476" clip-rule="evenodd"/><path fill="#fff" d="M459.029 247.86q1.744 1.693 4.424 1.2t5.021-2.932q2.32-2.411 2.715-5.146.394-2.733-1.32-4.395-1.747-1.692-4.428-1.192-2.688.5-5.018 2.923-2.37 2.465-2.771 5.142-.396 2.676 1.377 4.4"/><path fill="none" stroke="#343536" stroke-miterlimit="2.613" stroke-width=".495" d="M459.029 247.86q1.744 1.693 4.424 1.2t5.021-2.932q2.32-2.411 2.715-5.146.394-2.733-1.32-4.395-1.747-1.692-4.428-1.192-2.688.5-5.018 2.923-2.37 2.465-2.771 5.142-.396 2.676 1.377 4.4z"/><path fill="#fff" d="M307.831 321.543c0-48.829 38.748-88.411 86.547-88.411s86.546 39.582 86.546 88.411-38.747 88.412-86.546 88.412-86.547-39.583-86.547-88.412"/><ellipse cx="394.378" cy="321.543" fill="none" stroke="#343536" stroke-miterlimit="2.613" stroke-width="1.891" rx="86.546" ry="88.411"/><path fill="#343536" fill-rule="evenodd" d="m358.338 241.938-10.155 5.099 33.415 12.052 24.645-24.104h-21.876l-15.231 3.708Z" clip-rule="evenodd"/><path fill="none" stroke="#343536" stroke-miterlimit="2.613" stroke-width="1.891" d="m358.338 241.938-10.155 5.099 33.415 12.052 24.645-24.104h-21.876l-15.231 3.708Z"/><path fill="#343536" fill-rule="evenodd" d="m309.72 305.029 4.242-16.771 19.723 28.055-21.58 28.568-4.241-20.002.265-9.591ZM478.249 304.089l-31.254-16.003 3.83-33.44 18.488 22.413 1.276 3.846 1.533 3.848Z" clip-rule="evenodd"/><path fill="none" stroke="#343536" stroke-miterlimit="2.613" stroke-width="1.891" d="m478.249 304.089-31.254-16.003 3.83-33.44 18.488 22.413 1.276 3.846 1.533 3.848Z"/><path fill="#ef3e33" fill-rule="evenodd" d="M482.042 278.257s-13.022-7.692-1.532-9.743l11.49.256s8.625-.101 10.381 13.856q.045.374.087.76c1.532 14.721.661 2.203 4.595 7.179l2.043 3.077s-.149 7.542 2.403 9.594c0 0 6.023 6.668-2.657 12.307l-11.492 4.874s-13.635 1.388-17.977 6.001c0 0 1.023 5.387-6.127 3.078l-6.129 4.104-6.893-3.078s-4.955-.256-11.084 2.564c0 0 12.211-8.566 2.147-10.618 0 0-5.873-1.282 1.787-6.155 0 0 6.743-7.436-.767-6.666l-10.062 1.795s-7.659-4.104-2.298-8.462c0 0 4.189-8.823 15.168-9.078 0 0 13.788 3.845 14.555-5.386 0 0 3.726-6.924 9.191-4.872z" clip-rule="evenodd"/><path fill="#343536" fill-rule="evenodd" d="M385.513 282.874 356.3 317.083l26.914 35.746 40.807-14.615 6.381-38.826Z" clip-rule="evenodd"/><path fill="none" stroke="#343536" stroke-miterlimit="2.613" stroke-width="1.891" d="m424.098 303.645 23.009-15.13M422.866 337.971l22.441 22.642M362.439 317.516l-29.995-.948M381.184 256.914l5.474 33.664M387.103 344.268l-12.884 32.91"/><path fill="#00a261" fill-rule="evenodd" d="m429.245 308.756-.044.268-.522 3.137 5.272 2.645s1.507 5.486.189 6.053c0 0-5.461 1.892-6.402 1.135l2.636 3.566 5.461.566 3.202 3.025 1.691 1.324s-1.72 13.614-17.51 16.072c0 0-13.529 1.917-20.496 7.185l-32.359 9.05s-22.217 6.997-30.663 6.239l-5.649 3.594s-26.71.945-28.216-.756c0 0-27.134-40.825 1.109-51.226 0 0 .412 2.585.977 7.689l.279 5.191s14.983 2.066 22.677-.957l41.746-7.755s33.677-6.214 34.431-9.05l6.777-3.215s3.038-5.104 6.965-4.729z" clip-rule="evenodd"/><path fill="#343536" fill-rule="evenodd" d="m331.643 381.598 43.231-5.406 22.763 33.718s-27.84 2.138-50.439-14.31l-15.066-12.994z" clip-rule="evenodd"/><path fill="#343536" d="m441.902 357.294 36.104-12.454s-11.575 35.844-34.038 48.992z"/></g></svg>

<svg height="1000" viewBox="0 0 1000 1000" width="1000" xmlns="http://www.w3.org/2000/svg"><g transform="matrix(4.5045151 0 0 4.5045151 -1245.3047 -900.90302)"><path clip-rule="evenodd" d="M 337.129 240.591 L 330.69 245.828 L 332.819 250.241 L 328.306 253.913 L 317.328 228.511 L 323.008 223.892 L 345.472 239.951 L 340.963 243.619 Z" fill="#343536" fill-rule="evenodd"/><path clip-rule="evenodd" d="M 390.337 221.812 L 382.07 222.394 L 381.292 227.235 L 375.499 227.642 L 381.014 200.512 L 388.305 200 L 397.536 226.094 L 391.747 226.501 Z" fill="#343536" fill-rule="evenodd"/><path clip-rule="evenodd" d="M 305.161 295.439 L 302.441 308.289 L 276.457 302.743 L 277.67 297.008 L 297.586 301.259 L 299.091 294.143 Z" fill="#343536" fill-rule="evenodd"/><path clip-rule="evenodd" d="M 293.344 280.451 L 295.852 273.89 L 301.159 275.936 L 298.65 282.497 L 302.847 284.116 L 305.507 277.157 L 311.058 279.296 L 306.359 291.587 L 281.56 282.026 L 286.257 269.734 L 291.703 271.834 L 289.042 278.794 Z" fill="#343536" fill-rule="evenodd"/><path clip-rule="evenodd" d="m 311.488 260.148 l -4.565 -3.211 l 6.576 -9.432 c .155 .097 .322 .205 .502 .327 c .182 .121 .446 .303 .792 .548 c 3.743 2.631 6.089 5.474 7.04 8.525 c .95 3.051 .413 6.028 -1.611 8.93 c -.994 1.427 -2.144 2.509 -3.448 3.247 c -1.305 .737 -2.806 1.162 -4.504 1.268 c -1.623 .101 -3.305 -.116 -5.048 -.655 c -1.741 -.539 -3.392 -1.355 -4.946 -2.449 c -1.626 -1.143 -2.963 -2.417 -4.011 -3.824 c -1.049 -1.406 -1.809 -2.938 -2.278 -4.594 c -.445 -1.628 -.542 -3.203 -.289 -4.729 c .25 -1.526 .838 -2.95 1.759 -4.272 c 1.202 -1.724 2.687 -2.953 4.453 -3.688 c 1.767 -.735 3.798 -.97 6.093 -.706 l -.436 5.896 c -1.187 -.095 -2.204 .024 -3.049 .358 c -.844 .333 -1.535 .883 -2.073 1.654 c -1.001 1.437 -1.197 2.985 -.589 4.643 c .607 1.66 1.935 3.209 3.986 4.651 c 2.07 1.457 3.989 2.189 5.753 2.199 c 1.765 .009 3.148 -.705 4.15 -2.141 c .851 -1.219 1.192 -2.495 1.023 -3.827 c -.169 -1.332 -.819 -2.498 -1.95 -3.496 z" fill="#343536" fill-rule="evenodd"/><path d="m 328.417 241.004 l 4.508 -3.668 l -7.209 -5.465 c -.221 -.166 -.563 -.442 -1.027 -.831 c -.463 -.39 -1.061 -.888 -1.79 -1.499 c .312 .59 .608 1.155 .886 1.694 c .278 .541 .54 1.063 .784 1.568 z" fill="#fff"/><path clip-rule="evenodd" d="m 364.493 204.346 l 2.576 7.518 c -1.114 -.785 -2.131 -1.292 -3.048 -1.521 c -.917 -.228 -1.806 -.195 -2.662 .102 c -1.586 .548 -2.637 1.665 -3.155 3.354 c -.519 1.686 -.406 3.615 .337 5.784 c .693 2.02 1.767 3.522 3.223 4.509 c 1.456 .986 2.958 1.212 4.505 .677 c .856 -.297 1.577 -.818 2.162 -1.563 c .584 -.745 1.073 -1.774 1.468 -3.087 l 2.577 7.517 c -.693 .829 -1.427 1.527 -2.201 2.092 c -.775 .562 -1.606 .998 -2.489 1.303 c -1.105 .383 -2.181 .571 -3.227 .567 c -1.046 -.004 -2.076 -.203 -3.088 -.6 c -1.942 -.741 -3.638 -1.934 -5.087 -3.578 c -1.449 -1.644 -2.586 -3.666 -3.408 -6.065 c -.662 -1.93 -1.013 -3.772 -1.053 -5.524 c -.039 -1.752 .226 -3.447 .799 -5.084 c .536 -1.56 1.3 -2.852 2.294 -3.875 c .992 -1.025 2.226 -1.791 3.699 -2.3 c .883 -.307 1.803 -.477 2.759 -.511 c .956 -.036 1.962 .06 3.019 .285" fill="#343536" fill-rule="evenodd"/><path d="m 382.963 217.132 l 5.787 -.407 l -2.783 -8.63 c -.086 -.262 -.209 -.686 -.366 -1.27 c -.159 -.586 -.363 -1.339 -.612 -2.261 c -.081 .664 -.162 1.297 -.242 1.899 c -.08 .603 -.164 1.182 -.252 1.736 z" fill="#fff"/><path clip-rule="evenodd" d="M 414.093 228.661 L 401.139 226.833 L 404.837 200.414 L 410.618 201.229 L 407.783 221.478 L 414.955 222.491 Z" fill="#343536" fill-rule="evenodd"/><path clip-rule="evenodd" d="m 442.56 212.057 l -2.967 7.37 c -.326 -1.326 -.763 -2.377 -1.307 -3.156 c -.543 -.778 -1.235 -1.337 -2.075 -1.678 c -1.554 -.629 -3.078 -.479 -4.571 .453 c -1.496 .932 -2.67 2.461 -3.525 4.589 c -.797 1.98 -.969 3.823 -.512 5.527 c .453 1.702 1.44 2.861 2.959 3.477 c .838 .341 1.722 .423 2.65 .246 c .928 -.178 1.971 -.633 3.124 -1.362 l -2.964 7.37 c -1.068 .169 -2.076 .213 -3.03 .127 c -.952 -.085 -1.862 -.303 -2.729 -.654 c -1.083 -.439 -2.019 -1.006 -2.806 -1.7 c -.787 -.691 -1.434 -1.521 -1.938 -2.486 c -.982 -1.839 -1.484 -3.857 -1.503 -6.052 c -.021 -2.195 .444 -4.471 1.389 -6.825 c .763 -1.891 1.699 -3.511 2.816 -4.86 c 1.115 -1.349 2.424 -2.453 3.924 -3.311 c 1.423 -.824 2.844 -1.297 4.262 -1.415 c 1.418 -.118 2.85 .116 4.295 .702 c .867 .352 1.672 .829 2.416 1.432 c .745 .604 1.443 1.339 2.092 2.206" fill="#343536" fill-rule="evenodd"/><path clip-rule="evenodd" d="M 451.182 215.597 L 456.184 218.736 L 442.105 241.36 L 437.103 238.222 Z" fill="#343536" fill-rule="evenodd"/><path clip-rule="evenodd" d="m 472.673 250.201 c -1.325 1.38 -2.772 2.476 -4.339 3.288 c -1.565 .811 -3.195 1.317 -4.889 1.514 c -1.692 .182 -3.289 .039 -4.791 -.429 c -1.5 -.466 -2.793 -1.227 -3.879 -2.28 c -1.099 -1.067 -1.905 -2.344 -2.42 -3.83 c -.515 -1.486 -.698 -3.072 -.557 -4.756 c .125 -1.721 .565 -3.387 1.324 -4.999 c .758 -1.612 1.792 -3.099 3.104 -4.463 c 1.316 -1.371 2.763 -2.464 4.336 -3.275 c 1.572 -.814 3.215 -1.313 4.922 -1.496 c 1.673 -.203 3.257 -.073 4.752 .392 c 1.498 .464 2.797 1.23 3.896 2.297 c 1.094 1.061 1.9 2.337 2.42 3.83 c .523 1.493 .715 3.086 .577 4.776 c -.135 1.691 -.581 3.343 -1.341 4.955 c -.756 1.611 -1.796 3.104 -3.115 4.476" fill="#343536" fill-rule="evenodd"/><path d="m 459.029 247.86 c 1.162 1.129 2.638 1.528 4.424 1.2 c 1.786 -.328 3.461 -1.306 5.021 -2.932 c 1.547 -1.607 2.451 -3.323 2.715 -5.146 c .263 -1.822 -.178 -3.287 -1.32 -4.395 c -1.164 -1.128 -2.641 -1.526 -4.428 -1.192 c -1.791 .333 -3.465 1.307 -5.018 2.923 c -1.58 1.644 -2.504 3.357 -2.771 5.142 c -.263 1.784 .194 3.251 1.377 4.4" fill="#fff"/><path d="m 459.029 247.86 c 1.162 1.129 2.638 1.528 4.424 1.2 c 1.786 -.328 3.461 -1.306 5.021 -2.932 c 1.547 -1.607 2.451 -3.323 2.715 -5.146 c .263 -1.822 -.178 -3.287 -1.32 -4.395 c -1.164 -1.128 -2.641 -1.526 -4.428 -1.192 c -1.791 .333 -3.465 1.307 -5.018 2.923 c -1.58 1.644 -2.504 3.357 -2.771 5.142 c -.263 1.784 .194 3.251 1.377 4.4 z" fill="none" stroke="#343536" stroke-miterlimit="2.613" stroke-width=".495"/><path d="m 307.831 321.543 c 0 -48.829 38.748 -88.411 86.547 -88.411 c 47.799 0 86.546 39.582 86.546 88.411 c 0 48.829 -38.747 88.412 -86.546 88.412 c -47.799 0 -86.547 -39.583 -86.547 -88.412" fill="#fff"/><ellipse cx="394.37799" cy="321.543" fill="none" rx="86.545998" ry="88.411003" stroke="#343536" stroke-miterlimit="2.613" stroke-width="1.891"/><path clip-rule="evenodd" d="M 358.338 241.938 L 348.183 247.037 L 381.598 259.089 L 406.243 234.985 L 384.367 234.985 L 369.136 238.693 Z" fill="#343536" fill-rule="evenodd"/><path d="M 358.338 241.938 L 348.183 247.037 L 381.598 259.089 L 406.243 234.985 L 384.367 234.985 L 369.136 238.693 Z" fill="none" stroke="#343536" stroke-miterlimit="2.613" stroke-width="1.891"/><path clip-rule="evenodd" d="M 309.72 305.029 L 313.962 288.258 L 333.685 316.313 L 312.105 344.881 L 307.864 324.879 L 308.129 315.288 Z" fill="#343536" fill-rule="evenodd"/><path clip-rule="evenodd" d="M 478.249 304.089 L 446.995 288.086 L 450.825 254.646 L 469.313 277.059 L 470.589 280.905 L 472.122 284.753 Z" fill="#343536" fill-rule="evenodd"/><path d="M 478.249 304.089 L 446.995 288.086 L 450.825 254.646 L 469.313 277.059 L 470.589 280.905 L 472.122 284.753 Z" fill="none" stroke="#343536" stroke-miterlimit="2.613" stroke-width="1.891"/><path clip-rule="evenodd" d="m 482.042 278.257 c 0 0 -13.022 -7.692 -1.532 -9.743 L 492 268.77 c 0 0 8.625 -.101 10.381 13.856 c .03 .249 .059 .503 .087 .76 c 1.532 14.721 .661 2.203 4.595 7.179 l 2.043 3.077 c 0 0 -.149 7.542 2.403 9.594 c 0 0 6.023 6.668 -2.657 12.307 l -11.492 4.874 c 0 0 -13.635 1.388 -17.977 6.001 c 0 0 1.023 5.387 -6.127 3.078 l -6.129 4.104 l -6.893 -3.078 c 0 0 -4.955 -.256 -11.084 2.564 c 0 0 12.211 -8.566 2.147 -10.618 c 0 0 -5.873 -1.282 1.787 -6.155 c 0 0 6.743 -7.436 -.767 -6.666 l -10.062 1.795 c 0 0 -7.659 -4.104 -2.298 -8.462 c 0 0 4.189 -8.823 15.168 -9.078 c 0 0 13.788 3.845 14.555 -5.386 c 0 0 3.726 -6.924 9.191 -4.872 z" fill="#ef3e33" fill-rule="evenodd"/><path clip-rule="evenodd" d="M 385.513 282.874 L 356.3 317.083 L 383.214 352.829 L 424.021 338.214 L 430.402 299.388 Z" fill="#343536" fill-rule="evenodd"/><path d="M 424.09799 303.64499 L 447.10699 288.51501" fill="none" stroke="#343536" stroke-miterlimit="2.613" stroke-width="1.891"/><path d="M 422.866 337.97101 L 445.30701 360.61301" fill="none" stroke="#343536" stroke-miterlimit="2.613" stroke-width="1.891"/><path d="M 362.439 317.51599 L 332.444 316.56799" fill="none" stroke="#343536" stroke-miterlimit="2.613" stroke-width="1.891"/><path d="M 381.18399 256.914 L 386.65799 290.578" fill="none" stroke="#343536" stroke-miterlimit="2.613" stroke-width="1.891"/><path d="M 387.103 344.26801 L 374.21899 377.17801" fill="none" stroke="#343536" stroke-miterlimit="2.613" stroke-width="1.891"/><path clip-rule="evenodd" d="m 429.245 308.756 l -.044 .268 l -.522 3.137 l 5.272 2.645 c 0 0 1.507 5.486 .189 6.053 c 0 0 -5.461 1.892 -6.402 1.135 l 2.636 3.566 l 5.461 .566 l 3.202 3.025 l 1.691 1.324 c 0 0 -1.72 13.614 -17.51 16.072 c 0 0 -13.529 1.917 -20.496 7.185 l -32.359 9.05 c 0 0 -22.217 6.997 -30.663 6.239 l -5.649 3.594 c 0 0 -26.71 .945 -28.216 -.756 c 0 0 -27.134 -40.825 1.109 -51.226 c 0 0 .412 2.585 .977 7.689 l .279 5.191 c 0 0 14.983 2.066 22.677 -.957 l 41.746 -7.755 c 0 0 33.677 -6.214 34.431 -9.05 l 6.777 -3.215 c 0 0 3.038 -5.104 6.965 -4.729 z" fill="#00a261" fill-rule="evenodd"/><path clip-rule="evenodd" d="m 331.643 381.598 l 43.231 -5.406 l 22.763 33.718 c 0 0 -27.84 2.138 -50.439 -14.31 l -15.066 -12.994 z" fill="#343536" fill-rule="evenodd"/><path d="m 441.902 357.294 l 36.104 -12.454 c 0 0 -11.575 35.844 -34.038 48.992 z" fill="#343536"/></g></svg>
